X: 483
T: Cuihua beiqian
%%abc-version 2.0
%%abcx-abcm2ps-target-version 5.9.1 (29 Sep 2008)
%%abc-creator hum2abc beta
%%abcx-conversion-date 2013/10/02 07:52:30
%%abc-edited-by Helmut Schaffrath
%%humdrum-veritas 1838586699
%%humdrum-veritas-data 1023616645
%%continueall 1
%%barnumbers 0
L: 1/8
M: 2/4
K: A
B e e d/ B/ [I:setbarnb 1]| 
AB2B | 
e f e d/ B/ | 
A> F E/ F/ E | 
AA2B | 
eB2E | 
A B E E/ D/ | 
B,4 |]  



